assets/azureblobpage/original.svg

<svg height="18" viewBox="0 0 18 18" width="18" xmlns="http://www.w3.org/2000/svg" xmlns:xlink="http://www.w3.org/1999/xlink"><linearGradient id="a" gradientUnits="userSpaceOnUse" x1="9" x2="9" y1="15.834" y2="5.788"><stop offset="0" stop-color="#32bedd"/><stop offset=".775" stop-color="#32d4f5"/></linearGradient><path d="m.5 5.788h17v9.478a.57.57 0 0 1 -.568.568h-15.864a.57.57 0 0 1 -.568-.568z" fill="url(#a)"/><path d="m1.071 2.166h15.858a.57.57 0 0 1 .568.568v3.054h-16.997v-3.054a.57.57 0 0 1 .571-.568" fill="#198ab3"/><path d="m12.818 6.945h-3.081a.243.243 0 0 0 -.243.243v6.646a.243.243 0 0 0 .243.243h5.34a.243.243 0 0 0 .244-.243v-4.4a.244.244 0 0 0 -.244-.244h-1.772a.243.243 0 0 1 -.243-.244v-1.758a.243.243 0 0 0 -.244-.243" fill="#fff"/><path d="m12.706 7.256v1.669a.613.613 0 0 0 .612.612h1.682v4.229h-5.185v-6.51zm.118-.365h-3.124a.247.247 0 0 0 -.247.247v6.746a.247.247 0 0 0 .247.247h5.42a.247.247 0 0 0 .247-.247v-4.465a.25.25 0 0 0 -.247-.247h-1.8a.247.247 0 0 1 -.247-.247v-1.787a.247.247 0 0 0 -.247-.247z" fill="#c3f1ff"/><path d="m15.27 9.221-2.284-2.276v1.855a.42.42 0 0 0 .416.421z" fill="#50e6ff"/><path d="m6.251 6.945h-3.082a.243.243 0 0 0 -.243.243v6.646a.243.243 0 0 0 .243.243h5.341a.243.243 0 0 0 .243-.243v-4.4a.243.243 0 0 0 -.243-.244h-1.773a.243.243 0 0 1 -.243-.244v-1.758a.243.243 0 0 0 -.243-.243" fill="#fff"/><path d="m6.138 7.256v1.669a.613.613 0 0 0 .612.612h1.682v4.229h-5.184v-6.51zm.118-.365h-3.126a.246.246 0 0 0 -.247.247v6.746a.246.246 0 0 0 .247.247h5.419a.246.246 0 0 0 .247-.247v-4.465a.247.247 0 0 0 -.247-.247h-1.799a.25.25 0 0 1 -.25-.247v-1.787a.246.246 0 0 0 -.247-.247z" fill="#c3f1ff"/><path d="m8.7 9.221-2.282-2.276v1.855a.42.42 0 0 0 .416.421z" fill="#50e6ff"/></svg>

<svg xmlns="http://www.w3.org/2000/svg" width="18" height="18" viewBox="0 0 18 18"><defs><linearGradient id="b7fa1637-d9e1-4c26-8f20-1cae812e7eeb" x1="9" x2="9" y1="15.834" y2="5.788" gradientUnits="userSpaceOnUse"><stop offset="0" stop-color="#32bedd"/><stop offset=".775" stop-color="#32d4f5"/></linearGradient></defs><title>MsPortalFx.base.images-8</title><g id="b1d9b0f0-adfa-47cc-8819-3fbc616212eb"><path fill="url(#b7fa1637-d9e1-4c26-8f20-1cae812e7eeb)" d="M.5 5.788h17v9.478a.57.57 0 0 1-.568.568H1.068a.57.57 0 0 1-.568-.568z"/><path fill="#198ab3" d="M1.071 2.166h15.858a.57.57 0 0 1 .568.568v3.054H.5V2.734a.57.57 0 0 1 .571-.568"/><path fill="#fff" d="M12.818 6.945H9.737a.243.243 0 0 0-.243.243v6.646a.243.243 0 0 0 .243.243h5.34a.243.243 0 0 0 .244-.243v-4.4a.244.244 0 0 0-.244-.244h-1.772a.243.243 0 0 1-.243-.244V7.188a.243.243 0 0 0-.244-.243"/><path fill="#c3f1ff" d="M12.706 7.256v1.669a.613.613 0 0 0 .612.612H15v4.229H9.815v-6.51zm.118-.365H9.7a.247.247 0 0 0-.247.247v6.746a.247.247 0 0 0 .247.247h5.42a.247.247 0 0 0 .247-.247V9.419a.25.25 0 0 0-.247-.247h-1.8a.247.247 0 0 1-.247-.247V7.138a.247.247 0 0 0-.247-.247Z"/><path fill="#50e6ff" d="m15.27 9.221-2.284-2.276V8.8a.42.42 0 0 0 .416.421Z"/><path fill="#fff" d="M6.251 6.945H3.169a.243.243 0 0 0-.243.243v6.646a.243.243 0 0 0 .243.243H8.51a.243.243 0 0 0 .243-.243v-4.4a.243.243 0 0 0-.243-.244H6.737a.243.243 0 0 1-.243-.244V7.188a.243.243 0 0 0-.243-.243"/><path fill="#c3f1ff" d="M6.138 7.256v1.669a.613.613 0 0 0 .612.612h1.682v4.229H3.248v-6.51zm.118-.365H3.13a.246.246 0 0 0-.247.247v6.746a.246.246 0 0 0 .247.247h5.419a.246.246 0 0 0 .247-.247V9.419a.247.247 0 0 0-.247-.247H6.75a.25.25 0 0 1-.25-.247V7.138a.246.246 0 0 0-.247-.247Z"/><path fill="#50e6ff" d="M8.7 9.221 6.418 6.945V8.8a.42.42 0 0 0 .416.421Z"/></g></svg>
